images/ic_token_iyfi.svg

<svg height="250" viewBox="0 0 250 250" width="250" xmlns="http://www.w3.org/2000/svg"><path d="m0 125c0-69.035156 55.964844-125 125-125s125 55.964844 125 125-55.964844 125-125 125-125-55.964844-125-125zm0 0" fill="#006ae3"/><g fill="#fff"><path d="m119.835938 177.699219v-104h11.324218v104zm0 0"/><path d="m177.480469 108.351562-34.972657 9.273438-7.796874-36.300781 10.398437-2.347657 4.097656 17.199219s9.449219-15.5-3.148437-31.550781c-7.425782-8.25-10.949219-8.597656-19.273438-9.898438-7.324218-1.050781-24.347656 1.425782-29.421875 21.300782-2.148437 12.796875.273438 22.273437 16.773438 34.671875l-.925781 13.800781s-18.421876-12.972656-23.171876-22.074219c-3.675781-7.199219-9.972656-21.425781 1.398438-41.226562 6.125-9.898438 18.199219-19.398438 39.472656-18.398438 10.699219.449219 36.820313 13.523438 32.773438 44.074219-.703125 5.726562-3.675782 13.351562-3.675782 13.351562l14.347657-3.199218zm0 0"/><path d="m157.507812 189.726562c-6.398437 9.722657-18.722656 18.898438-39.945312 17.347657-10.699219-.722657-36.445312-14.5-31.597656-44.921875.851562-5.703125 4.023437-13.226563 4.023437-13.226563l-14.421875 2.800781-2.824218-11.375 35.222656-8.351562 6.847656 36.5-10.472656 2.074219-3.652344-17.324219s-9.847656 15.226562 2.300781 31.625c7.199219 8.449219 10.699219 8.875 19.023438 10.402344 7.273437 1.25 24.371093-.800782 29.972656-20.527344 2.472656-12.722656.300781-22.273438-15.847656-35.125l1.296875-13.773438s18.074218 13.449219 22.574218 22.675782c3.449219 7.324218 9.375 21.722656-2.5 41.199218zm0 0"/></g></svg>

<svg xmlns="http://www.w3.org/2000/svg" xmlns:xlink="http://www.w3.org/1999/xlink" width="250px" height="250px" viewBox="0 0 250 250" version="1.1">
<g id="surface1">
<path style=" stroke:none;fill-rule:nonzero;fill:rgb(0%,41.568628%,89.019608%);fill-opacity:1;" d="M 0 125 C 0 55.964844 55.964844 0 125 0 C 194.035156 0 250 55.964844 250 125 C 250 194.035156 194.035156 250 125 250 C 55.964844 250 0 194.035156 0 125 Z M 0 125 "/>
<path style=" stroke:none;fill-rule:nonzero;fill:rgb(100%,100%,100%);fill-opacity:1;" d="M 119.835938 177.699219 L 119.835938 73.699219 L 131.160156 73.699219 L 131.160156 177.699219 Z M 119.835938 177.699219 "/>
<path style=" stroke:none;fill-rule:nonzero;fill:rgb(100%,100%,100%);fill-opacity:1;" d="M 177.480469 108.351562 L 142.507812 117.625 L 134.710938 81.324219 L 145.109375 78.976562 L 149.207031 96.175781 C 149.207031 96.175781 158.65625 80.675781 146.058594 64.625 C 138.632812 56.375 135.109375 56.027344 126.785156 54.726562 C 119.460938 53.675781 102.4375 56.152344 97.363281 76.027344 C 95.214844 88.824219 97.636719 98.300781 114.136719 110.699219 L 113.210938 124.5 C 113.210938 124.5 94.789062 111.527344 90.039062 102.425781 C 86.363281 95.226562 80.066406 81 91.4375 61.199219 C 97.5625 51.300781 109.636719 41.800781 130.910156 42.800781 C 141.609375 43.25 167.730469 56.324219 163.683594 86.875 C 162.980469 92.601562 160.007812 100.226562 160.007812 100.226562 L 174.355469 97.027344 Z M 177.480469 108.351562 "/>
<path style=" stroke:none;fill-rule:nonzero;fill:rgb(100%,100%,100%);fill-opacity:1;" d="M 157.507812 189.726562 C 151.109375 199.449219 138.785156 208.625 117.5625 207.074219 C 106.863281 206.351562 81.117188 192.574219 85.964844 162.152344 C 86.816406 156.449219 89.988281 148.925781 89.988281 148.925781 L 75.566406 151.726562 L 72.742188 140.351562 L 107.964844 132 L 114.8125 168.5 L 104.339844 170.574219 L 100.6875 153.25 C 100.6875 153.25 90.839844 168.476562 102.988281 184.875 C 110.1875 193.324219 113.6875 193.75 122.011719 195.277344 C 129.285156 196.527344 146.382812 194.476562 151.984375 174.75 C 154.457031 162.027344 152.285156 152.476562 136.136719 139.625 L 137.433594 125.851562 C 137.433594 125.851562 155.507812 139.300781 160.007812 148.527344 C 163.457031 155.851562 169.382812 170.25 157.507812 189.726562 Z M 157.507812 189.726562 "/>
</g>
</svg>
